X:6463
T:Tha'n Doarach Sa Bhailie So
O:england
S:Alexander Mackay, A collection of Reels...
B:NLS Glen.344
N:Mc16 in Gore's Scottish Fiddle Music Index
N:Gore guesses 1802, a note (by Murdoch Henderson?)
N:on the titlepage says there's an 1832 watermark.
M:C|
L:1/8
K:A Mixolydian
B|e2ed cAAB|G2GB dBGB|d2dg fded|ceae cAA:|
B|cAae cAAe|BGdG BGGB|d2dg fded|ceae cAA:|


